!!!!SEGMENT: pl-kk--kk-i-38--015_lasso-orlando-di--pater-abraham.krn
!!!cenid: 16xx:1265
!!!COM: Lasso, Orlando di
!!!COM-rism: pe506
!!!CDT: ~1532-1594/06/14
!!!CNT: Franco-Flemish
!!!OTL: Pater Abraham
!!!PDT:
!!!AGN: Sacred
!!!SMS-siglum: PL-Kk
!!!SMS-shelfmark: Kk.I.38
!!!NIFC-rismID: 1001154402
!!!URL-scan: http://repozytorium.nifc.pl/skany/pl-kk-nut--i-38
!!!ONB-nifc: Lib. 4. Fol. 6. 2da parte (jeśli występuje), należy do utworu tytułowego
!!!SMS-variant:
!!!SMS-altvar:
**kern	**text
*I"Baſso Ripieno.	*
*clefF3	*
*k[b-]	*
*M2/1	*
*met(C|)	*
=1-	=1-
!LO:TX:t=P:problem: w źródle znaki przykluczowe BB- B- zapisane jeden nad drugim	!
!LO:TX:t=P:problem: w źródle przed oznaczeniem metrycznym zapisany akrd f d B-	!
!LO:TX:a:i:t=Lib. 4. Fol. 6.	!
0r	.
=2-	=2-
0r	.
=3-	=3-
!LO:TX:t=P:problem:kreska pseudotaktowa	!
1r	.
0E-X	Pa-
=4-	=4-
*lig	*
1D	-ter
=5-	=5-
1C	.
*Xlig	*
1.G	A-
=6-	=6-
*2\right	*
2F\	-bra-
!LO:TX:t=P:problem:kreska pseudotaktowa	!
0E-X	-ham!
=7-	=7-
!LO:TX:t=P:problem:kreska pseudotaktowa	!
1r	.
=8-	=8-
0F	Pa-
=9-	=9-
*lig	*
1G	-ter
!LO:TX:t=P:problem:kreska pseudotaktowa	!
1A	.
*Xlig	*
=10-	=10-
2.D/	a-
!LO:TX:t=P:problem:kreska pseudotaktowa	!
4E/ny	.
2.F\	.
!LO:TX:t=P:problem:kreska pseudotaktowa	!
4G\	.
=11-	=11-
2A\	.
2A\	-bra-
0D,<	-ham!
=12-	=12-
!LO:TX:t=P:problem:kreska pseudotaktowa	!
1.G	mi-
=13-	=13-
!LO:TX:t=P:problem:kreska pseudotaktowa	!
2F#X\	-ſe-
2G\	-re-
!LO:TX:t=P:problem:kreska pseudotaktowa	!
2D,</	-re
=14-	=14-
1C	me-
0D,<	-i
!LO:LB:g=original	!
=15-	=15-
!LO:TX:t=P:problem:kreska pseudotaktowa	!
1.G	mi-
=16-	=16-
!LO:TX:t=P:problem:kreska pseudotaktowa	!
2D/	-se-
2G\	-re-
2G\	-re
=17-	=17-
1E-X	me-
!LO:TX:t=P:problem:kreska pseudotaktowa	!
1BB-	-i!
=18-	=18-
1r	.
2r	.
!LO:TX:t=P:problem:kreska pseudotaktowa	!
2B-\	et
=19-	=19-
(>2.d\	mit-
!LO:TX:t=P:problem:kreska pseudotaktowa	!
4c\	.
2B-\)	.
!LO:TX:t=P:problem:kreska pseudotaktowa	!
2G\	-te
=20-	=20-
2.F/ny	La-
4F/	-za-
!LO:TX:t=P:problem:kreska pseudotaktowa	!
1D,<	-rum!
=21-	=21-
2r	.
!LO:TX:t=P:problem:kreska pseudotaktowa	!
2B-\	et
2.d\	mit-
4c\	.
=22-	=22-
4B-\	.
4A\	.
2G\	.
!LO:TX:t=P:problem:kreska pseudotaktowa	!
0D	-te
=23-	=23-
2.A\	La-
4A\	-za-
=24-	=24-
!LO:TX:t=P:problem:kreska pseudotaktowa	!
1AA	-rum,
00r	.
=25-	=25-
.	.
=26-	=26-
00r	.
=27-	=27-
.	.
=28-	=28-
00rA	.
=29-	=29-
.	.
=30-	=30-
!LO:TX:t=P:problem:kreska pseudotaktowa	!
1r	.
=31-	=31-
2rA	.
2.d\	ut
4c\	.
4B-\	.
!LO:TX:t=P:problem:kreska pseudotaktowa	!
4A\	.
=32-	=32-
2G\	re-
2F\	.
2.E-X/	-fri-
4E-/	-ge-
=33-	=33-
!LO:TX:t=P:problem:kreska pseudotaktowa	!
1D	-ret
!LO:LB:g=original	!
2r	.
!LO:TX:t=P:problem:kreska pseudotaktowa	!
[<2d\	ut
=34-	=34-
*cue	*
!LO:N:xstem	!
4d\]	.
*Xcue	*
4c\	.
4B-\	.
!LO:TX:t=P:problem:kreska pseudotaktowa	!
4A\	.
2G\	re-
!LO:TX:t=P:problem:kreska pseudotaktowa	!
2F\	.
=35-	=35-
2.E-X/	fri-
4E-/	-ge-
!LO:TX:t=P:problem:kreska pseudotaktowa	!
1D,<	-ret
=36-	=36-
0BB-	lin-
=37-	=37-
!LO:TX:t=P:problem:kreska pseudotaktowa	!
1F	-gvam
*lig	*
1E-X	me-
=38-	=38-
1F	.
*Xlig	*
!LO:TX:t=P:problem:kreska pseudotaktowa	!
1BB-,<	-am!
=39-	=39-
00r	.
=40-	=40-
.	.
=41-	=41-
2r	.
1A	qui-
!LO:TX:t=P:problem:kreska pseudotaktowa	!
2A\	-a
=42-	=42-
1.B-	cru-
!LO:TX:t=P:problem:kreska pseudotaktowa	!
2A\	-ci-
=43-	=43-
4A\	-or
4G\	.
4F\	.
4E\ny	.
!LO:TX:t=P:problem:kreska pseudotaktowa	!
1D	.
=44-	=44-
2r	.
2G\	in
2G\	hac
4D/	flam-
!LO:TX:t=P:problem:kreska pseudotaktowa	!
4E/	.
=45-	=45-
4F\	.
4G\	.
4A\	.
4B-\	.
2.c\	.
8B-\L	.
!LO:TX:t=P:problem:kreska pseudotaktowa	!
8A\J	.
=46-	=46-
4G\	.
4A\	.
4B-\	.
4c\	.
1d	.
=47-	=47-
!LO:TX:t=P:problem:kreska pseudotaktowa	!
1D	-ma
!LO:TX:t=P:problem:kreska pseudotaktowa	!
!LO:LB:g=original	!
1rc	.
=48-	=48-
!LO:TX:t=P:problem:kreska pseudotaktowa	!
1G	Et
2C/	di-
!LO:TX:t=P:problem:kreska pseudotaktowa	!
2C/	-xit
=49-	=49-
1F	il-
!LO:TX:t=P:problem:kreska pseudotaktowa	!
1C,<	-li
=50-	=50-
!LO:TX:t=P:problem:kreska pseudotaktowa	!
00r	.
=51-	=51-
.	.
=52-	=52-
1.BB-	a-
2C/	-bra-
=53-	=53-
!LO:TX:t=P:problem:podwójna kreska pseudotaktowa	!
0D;>	-ham:
=54||-	=54||-
*M2/1	*
*met(C|)	*
!LO:TX:t=P:problem: w źródle znaki przykluczowe BB- B- zapisane jeden nad drugim	!
!LO:TX:t=P:problem:kreska pseudotaktowa	!
!LO:TX:a:i:t=2da\nparte	!
1rc	.
1G	Fi-
=55-	=55-
!LO:TX:t=P:problem:kreska pseudotaktowa	!
0E-X	-li!,
=56-	=56-
1rF	.
1BB-	Fi-
=57-	=57-
!LO:TX:t=P:problem:kreska pseudotaktowa	!
1C	-li!
!LO:TX:t=P:problem:kreska pseudotaktowa	!
1r	.
=58-	=58-
1.B-	re-
2B-\	-cor-
=59-	=59-
1B-	-da-
0F	-re,
!LO:LB:g=original	!
=60-	=60-
!LO:TX:t=P:problem:kreska pseudotaktowa	!
1r	.
=61-	=61-
1.E-X	re-
2E-/	-cor-
=62-	=62-
1E-	-da-
!LO:TX:t=P:problem:kreska pseudotaktowa	!
1BB-,<	-re:
=63-	=63-
1r	.
1C	qui-
=64-	=64-
*lig	*
1C	-a
!LO:TX:t=P:problem:kreska pseudotaktowa	!
1D	.
*Xlig	*
=65-	=65-
2r	.
1G	re-
!LO:TX:t=P:problem:kreska pseudotaktowa	!
2F\	-ce-
=66-	=66-
2B-\	-pi-
!LO:TX:t=P:problem:kreska pseudotaktowa	!
2G\	-sti
1A	bo-
=67-	=67-
!LO:TX:t=P:problem:kreska pseudotaktowa	!
1D,<	-na
0r	.
=68-	=68-
!LO:TX:t=P:problem:kreska pseudotaktowa	!
1r	.
=69-	=69-
2r	.
1G	re-
!LO:TX:t=P:problem:kreska pseudotaktowa	!
2F\	-ce-
=70-	=70-
2B-\	-pi-
!LO:TX:t=P:problem:kreska pseudotaktowa	!
2B-\	-ſti
1F	bo-
=71-	=71-
!LO:TX:t=P:problem:kreska pseudotaktowa	!
1BB-,<	-na
0r	.
=72-	=72-
!LO:TX:t=P:problem:kreska pseudotaktowa	!
1r	.
=73-	=73-
0D	in
=74-	=74-
1BBn	Vi-
!LO:TX:t=P:problem:kreska pseudotaktowa	!
1C	-ta
=75-	=75-
1D	tu-
!LO:TX:t=P:problem:kreska pseudotaktowa	!
!LO:TX:t=P:problem:dodatkowy fragment zapisany na dole strony	!
!LO:TX:a:t=vi&colon;	!
1D	-a
=76-	=76-
!LO:TX:t=P:problem:kreska pseudotaktowa	!
!LO:TX:a:t=de	!
1r	.
0A	in
=77-	=77-
1F#X	vi-
=78-	=78-
!LO:TX:t=P:problem:kreska pseudotaktowa	!
1G,<	-ta
1A	tu-
=79-	=79-
!LO:TX:t=P:problem:kreska pseudotaktowa	!
0A,>	-a
=80-	=80-
!LO:TX:t=P:problem:kreska pseudotaktowa	!
1r	.
0D	in
=81-	=81-
1BBn	Vi-
=82-	=82-
!LO:TX:t=P:problem:kreska pseudotaktowa	!
1C	-ta
1D	tu-
=83-	=83-
!LO:TX:t=P:problem:kreska pseudotaktowa	!
!LO:TX:b:t=et Lazar(us)	!
!LO:SIC:v:t=custos tekstowy: et Lazar(us)	!
!LO:SIC:v:t=custos G	!
!LO:TX:a:t=re&colon;	!
1D,<	-a.
!LO:LB:g=original	!
!LO:TX:a:t=tro.	!
2r	.
!LO:TX:t=P:problem:kreska pseudotaktowa	!
2G\	et
=84-	=84-
2.d\	La-
4d\	-za-
!LO:TX:t=P:problem:kreska pseudotaktowa	!
1d,<	-r(us)
=85-	=85-
1r	.
2rD	.
*	*ij
!LO:TX:t=P:problem:kreska pseudotaktowa	!
2D/	et
=86-	=86-
2.d\	La-
4d\	-za-
!LO:TX:t=P:problem:kreska pseudotaktowa	!
1d,<	-rus
*	*Xij
=87-	=87-
1B-	si-
2.A\	-mi-
!LO:TX:t=P:problem:kreska pseudotaktowa	!
4A\	-li-
=88-	=88-
2c,<\	-ter
(>4B-\	ma-
!LO:TX:t=P:problem:kreska pseudotaktowa	!
4c\)	.
4d\	.
(>4c\	.
4B-\)	.
!LO:TX:t=P:problem:kreska pseudotaktowa	!
4A\	.
=89-	=89-
4G\	.
4F\ny	.
2G\	.
!LO:TX:t=P:problem:kreska pseudotaktowa	!
1c,>	-la
=90-	=90-
00r	.
=91-	=91-
.	.
=92-	=92-
!LO:TX:t=P:problem:kreska pseudotaktowa	!
0r	.
=93-	=93-
2rD	.
!LO:TX:t=P:problem:kreska pseudotaktowa	!
2BB-/ny	Nunc
1E-X	au-
=94-	=94-
2BB-,</	-tem
!LO:TX:t=P:problem:kreska pseudotaktowa	!
2B-\	hic
4A\	con-
4F\	-ſo-
!LO:TX:t=P:problem:kreska pseudotaktowa	!
2G\	-la-
=95-	=95-
2F,<\	-tur
!LO:TX:t=P:problem:kreska pseudotaktowa	!
2G\	hic
4F/	con-
4D/	-ſo-
!LO:TX:t=P:problem:kreska pseudotaktowa	!
!LO:SIC:v:t=custos D	!
2E-X/	-la-
!LO:LB:g=original	!
=96-	=96-
2D,</	-tur
!LO:TX:t=P:problem:kreska pseudotaktowa	!
2d\	hic
4c\	con-
4A\	-ſo-
!LO:TX:t=P:problem:kreska pseudotaktowa	!
2B-\	-la-
=97-	=97-
2A,>\	-tur
*	*ij
!LO:TX:t=P:problem:kreska pseudotaktowa	!
2G\	hic
4F/	con-
4D/	-ſo-
!LO:TX:t=P:problem:kreska pseudotaktowa	!
2E-X/	-la-
=98-	=98-
2D,</	-tur
*	*Xij
!LO:TX:t=P:problem:kreska pseudotaktowa	!
2D/	hic
4C/	con-
4AA/	-so-
!LO:TX:t=P:problem:kreska pseudotaktowa	!
2BB-/	-la-
=99-	=99-
2AA,</	-t(ur)
*	*ij
!LO:TX:t=P:problem:kreska pseudotaktowa	!
2A\	hic
4G\	con-
4F#X\	-so-
2G\	-la-
=100-	=100-
!LO:TX:t=P:problem:kreska pseudotaktowa	!
1D,<	-t(ur)
*	*Xij
!!LO:TX:t=P:problem:kreska pseudotaktowa	!
0.A	Tu,
=101-	=101-
.	.
=102-	=102-
2r	.
!LO:TX:t=P:problem:kreska pseudotaktowa	!
2A\	tu
2G\	ve-
!LO:TX:t=P:problem:kreska pseudotaktowa	!
2A\	-rò
=103-	=103-
2r	.
*	*ij
!LO:TX:t=P:problem:kreska pseudotaktowa	!
2F\ny	tu
2G\	ve-
!LO:TX:t=P:problem:kreska pseudotaktowa	!
2F\	-rò
*	*Xij
=104-	=104-
0A	cru-
=105-	=105-
0A	-ci-
=106-	=106-
!LO:TX:t=P:problem:kreska pseudotaktowa	!
[<00.D	-a-
=107-	=107-
.	.
=108-	=108-
.	.
=109-	=109-
00.D]	.
=110-	=110-
.	.
=111-	=111-
.	.
=112-	=112-
0G;>	-ris.
=-	=-
*-	*-
!!!RDF**kern: > = above
!!!RDF**kern: < = below
!!!EED: Antoni Szymański
!!!EST: 2021-07-29
!!!ENC: Krzysztof Stępień
!!!END: 2021-07-01
